alura/assets/api/cursos/modulo-6-entregando-apresentando-discovery.svg

<svg width="50" height="50" viewBox="0 0 50 50" fill="none" xmlns="http://www.w3.org/2000/svg">
<path d="M32.5001 46.4999C32.4001 45.7999 32.9001 45.1999 33.6001 45.0999C34.3001 44.9999 35.0001 44.8999 35.5001 44.7999C35.7001 44.7999 35.9001 44.5999 35.9001 44.3999V42.7999C35.9001 42.5999 35.8001 42.4999 35.7001 42.4999C35.6001 42.4999 35.5001 42.3999 35.3001 42.3999C34.1001 42.5999 32.4001 42.7999 30.4001 42.8999C30.1001 42.8999 29.8001 42.8999 29.5001 42.8999C27.2001 42.8999 25.1001 42.5999 23.7001 42.3999C23.6001 42.3999 23.6001 42.3999 23.5001 42.3999H23.4001C23.4001 42.3999 23.3001 42.3999 23.3001 42.4999C23.2001 42.5999 23.1001 42.6999 23.1001 42.7999V44.3999C23.1001 44.5999 23.3001 44.7999 23.5001 44.7999C24.0001 44.8999 24.7001 44.9999 25.4001 45.0999C26.1001 45.1999 26.5001 45.7999 26.5001 46.4999C26.5001 46.8999 26.2001 47.1999 26.0001 47.3999H33.0001C32.8001 47.1999 32.6001 46.8999 32.5001 46.4999Z" fill="#4B187B"/>
<path d="M41.4001 2.5H7.7001C4.6001 2.5 2.1001 5 2.1001 8V39.3V41.8C2.1001 44.9 4.6001 47.4 7.7001 47.4H21.7001C21.7001 47.1 21.8001 46.9 21.8001 46.7C21.8001 46.7 21.8001 46.6 21.7001 46.6C21.6001 46.5 21.5001 46.4 21.4001 46.3C21.4001 46.2 21.3001 46.2 21.3001 46.1C21.2001 46 21.2001 45.9 21.1001 45.8C21.1001 45.7 21.0001 45.7 21.0001 45.6C20.9001 45.5 20.9001 45.4 20.9001 45.2C20.9001 45.1 20.9001 45.1 20.9001 45C20.9001 44.8 20.8001 44.6 20.8001 44.4V42.8C20.8001 42 21.2001 41.2 21.8001 40.6C22.4001 40.1 23.3001 39.8 24.1001 40C25.3001 40.2 27.3001 40.4 29.5001 40.4C31.7001 40.4 33.6001 40.2 34.9001 40C35.7001 39.9 36.6001 40.1 37.2001 40.6C37.8001 41.1 38.2001 41.9 38.2001 42.8V44.4C38.2001 44.6 38.2001 44.8 38.1001 45C38.1001 45.1 38.1001 45.1 38.1001 45.2C38.1001 45.3 38.0001 45.5 38.0001 45.6C38.0001 45.7 37.9001 45.7 37.9001 45.8C37.8001 45.9 37.8001 46 37.7001 46.1C37.7001 46.2 37.6001 46.2 37.6001 46.3C37.5001 46.4 37.4001 46.5 37.3001 46.6C37.4001 46.8 37.4001 47.1 37.4001 47.4H41.4001C42.4001 47.4 43.3001 47.2 44.1001 46.7C45.8001 45.8 47.0001 43.9 47.0001 41.8V23.5V8C47.0001 5 44.5001 2.5 41.4001 2.5ZM33.5001 38.2C33.5001 38.5 33.2001 38.8 32.9001 38.8C32.6001 38.8 32.3001 38.5 32.3001 38.2C32.3001 29.5 32.8001 26.3 34.1001 24.1C32.9001 24.3 31.4001 24.2 29.6001 23.2C27.8001 24.2 26.2001 24.3 25.1001 24.1C26.4001 26.3 26.9001 29.5 26.9001 38C26.9001 38.3 26.6001 38.6 26.3001 38.6C26.0001 38.6 25.7001 38.3 25.7001 38C25.7001 26.5 24.8001 25.1 22.6001 22.9C22.4001 22.7 22.3001 22.3 22.6001 22C22.8001 21.8 23.2001 21.7 23.4001 22C23.8001 22.4 25.9001 24 29.3001 21.9H29.4001H29.5001H29.6001H29.7001H29.8001H29.9001C33.3001 24 35.4001 22.4 35.8001 22C36.0001 21.8 36.4001 21.8 36.7001 22C36.9001 22.2 36.9001 22.6 36.7001 22.8C34.4001 25.1 33.5001 26.5 33.5001 38.2ZM41.7001 31.5C39.7001 34 38.8001 35.9 38.5001 38.3C38.4001 38.9 37.9001 39.4 37.3001 39.4C36.6001 39.4 36.1001 38.9 36.1001 38.2C36.1001 38.2 36.1001 38.1 36.1001 38C36.4001 35.2 37.5001 32.8 39.8001 30C42.1001 27.1 43.3001 24 43.3001 20.8C43.3001 16.9 41.6001 13.2 38.7001 10.5C35.8001 7.9 32.0001 6.7 28.0001 7.1C21.6001 7.8 16.5001 13 15.9001 19.5C15.6001 23.2 16.7001 26.7 19.4001 30.1C21.6001 32.9 22.7001 35.3 23.0001 38.1C23.1001 38.8 22.6001 39.4 21.9001 39.5C21.9001 39.5 21.8001 39.5 21.7001 39.5C21.1001 39.5 20.6001 39 20.5001 38.4C20.2001 36 19.3001 34 17.4001 31.6C14.4001 27.8 13.0001 23.5 13.4001 19.3C14.1001 11.7 20.1001 5.6 27.7001 4.8C32.3001 4.3 36.9001 5.8 40.3001 8.8C43.7001 11.9 45.7001 16.3 45.7001 20.9C45.8001 24.5 44.4001 28.1 41.7001 31.5Z" fill="#4B187B"/>
<path d="M37.3 46.5C37.4 46.4 37.5 46.3 37.6 46.2C37.6 46.2 37.7001 46.1 37.7001 46C37.8001 45.9 37.8001 45.8 37.9001 45.7C37.9001 45.6 38 45.6 38 45.5C38.1 45.4 38.1 45.3 38.1 45.1C38.1 45 38.1 45 38.1 44.9C38.1 44.7 38.2001 44.5 38.2001 44.3V42.7C38.2001 41.9 37.8001 41.1 37.2001 40.5C36.6001 40 35.7001 39.7 34.9001 39.9C33.7001 40.1 31.7 40.3 29.5 40.3C27.3 40.3 25.4 40.1 24.1 39.9C23.3 39.8 22.4 40 21.8 40.5C21.2 41 20.8 41.8 20.8 42.7V44.3C20.8 44.5 20.8 44.7 20.9 44.9C20.9 45 20.9 45 20.9 45.1C20.9 45.2 21 45.4 21 45.5C21 45.6 21.1 45.6 21.1 45.7C21.2 45.8 21.2 45.9 21.3 46C21.3 46.1 21.4 46.1 21.4 46.2C21.5 46.3 21.6001 46.4 21.7001 46.5C21.7001 46.5 21.7 46.6 21.8 46.6C21.7 46.8 21.7001 47.1 21.7001 47.3H26.1C26.4 47.1 26.6 46.8 26.6 46.4C26.7 45.7 26.2 45.1 25.5 45C24.8 44.9 24.1 44.8 23.6 44.7C23.4 44.7 23.2001 44.5 23.2001 44.3V42.7C23.2001 42.5 23.3 42.4 23.4 42.4C23.4 42.4 23.5 42.4 23.5 42.3C23.5 42.3 23.5 42.3 23.6 42.3C23.7 42.3 23.7 42.3 23.8 42.3C25.1 42.5 27.2 42.8 29.6 42.8C29.9 42.8 30.2 42.8 30.5 42.8C32.5 42.7 34.2001 42.5 35.4001 42.3C35.6001 42.3 35.7 42.3 35.8 42.4C35.9 42.5 36 42.6 36 42.7V44.3C36 44.5 35.8 44.7 35.6 44.7C35.1 44.8 34.4001 44.9 33.7001 45C33.0001 45.1 32.6 45.7 32.6 46.4C32.6 46.8 32.9 47.1 33.1 47.3H37.4001C37.4001 47.1 37.4 46.8 37.3 46.5C37.3 46.6 37.3 46.6 37.3 46.5Z" fill="#895BD3"/>
<path d="M40.4001 8.69997C37.0001 5.59997 32.4 4.19997 27.8 4.69997C20.2 5.49997 14.2 11.7 13.5 19.2C13.1 23.4 14.5 27.7 17.5 31.5C19.4 33.9 20.3 35.9 20.6 38.3C20.7 38.9 21.2 39.4 21.8 39.4C21.8 39.4 21.9 39.4 22 39.4C22.7 39.3 23.1 38.7 23.1 38C22.7 35.2 21.7 32.8 19.5 30C16.8 26.6 15.6 23.1 16 19.4C16.5 13 21.6 7.79997 28 7.09997C32 6.69997 35.8 7.89997 38.8 10.5C41.7 13.1 43.4001 16.8 43.4001 20.8C43.4001 24 42.2001 27.1 39.9001 30C37.6001 32.9 36.5001 35.2 36.2001 38C36.2001 38 36.2001 38.1 36.2001 38.2C36.2001 38.9 36.7001 39.4 37.4001 39.4C38.0001 39.4 38.5 38.9 38.6 38.3C38.9 35.9 39.8 34 41.8 31.5C44.5 28.1 45.9001 24.5 45.9001 20.8C45.8001 16.2 43.8001 11.8 40.4001 8.69997Z" fill="#895BD3"/>
<path d="M36.6001 22.1C36.4001 21.9 36.0001 21.9 35.7001 22.1C35.3001 22.4 33.2001 24 29.8001 22H29.7001H29.6001H29.5001H29.4001H29.3001H29.2001C25.8001 24.1 23.7001 22.5 23.3001 22.1C23.1001 21.9 22.7001 21.9 22.5001 22.1C22.3001 22.3 22.3001 22.7 22.5001 23C24.7001 25.2 25.6001 26.5999 25.6001 38.0999C25.6001 38.3999 25.9001 38.7 26.2001 38.7C26.5001 38.7 26.8001 38.3999 26.8001 38.0999C26.8001 29.5999 26.3001 26.4 25.0001 24.2C26.2001 24.4 27.7001 24.3 29.5001 23.3C31.3001 24.3 32.9001 24.4 34.0001 24.2C32.7001 26.4 32.2001 29.5999 32.2001 38.2999C32.2001 38.5999 32.5001 38.9 32.8001 38.9C33.1001 38.9 33.4001 38.5999 33.4001 38.2999C33.4001 26.5999 34.3001 25.3 36.6001 23C36.9001 22.7 36.9001 22.3 36.6001 22.1Z" fill="#895BD3"/>
</svg>

<svg xmlns="http://www.w3.org/2000/svg" fill="none" viewBox="0 0 50 50"><path fill="#4B187B" d="M32.5 46.5c-.1-.7.4-1.3 1.1-1.4.7-.1 1.4-.2 1.9-.3.2 0 .4-.2.4-.4v-1.6c0-.2-.1-.3-.2-.3s-.2-.1-.4-.1c-1.2.2-2.9.4-4.9.5h-.9c-2.3 0-4.4-.3-5.8-.5h-.3s-.1 0-.1.1c-.1.1-.2.2-.2.3v1.6c0 .2.2.4.4.4.5.1 1.2.2 1.9.3.7.1 1.1.7 1.1 1.4 0 .4-.3.7-.5.9h7c-.2-.2-.4-.5-.5-.9z"/><path fill="#4B187B" d="M41.4 2.5H7.7C4.6 2.5 2.1 5 2.1 8v33.8c0 3.1 2.5 5.6 5.6 5.6h14c0-.3.1-.5.1-.7 0 0 0-.1-.1-.1l-.3-.3c0-.1-.1-.1-.1-.2-.1-.1-.1-.2-.2-.3 0-.1-.1-.1-.1-.2-.1-.1-.1-.2-.1-.4V45c0-.2-.1-.4-.1-.6v-1.6c0-.8.4-1.6 1-2.2.6-.5 1.5-.8 2.3-.6 1.2.2 3.2.4 5.4.4s4.1-.2 5.4-.4c.8-.1 1.7.1 2.3.6.6.5 1 1.3 1 2.2v1.6c0 .2 0 .4-.1.6v.2c0 .1-.1.3-.1.4 0 .1-.1.1-.1.2-.1.1-.1.2-.2.3 0 .1-.1.1-.1.2l-.3.3c.1.2.1.5.1.8h4c1 0 1.9-.2 2.7-.7 1.7-.9 2.9-2.8 2.9-4.9V8c0-3-2.5-5.5-5.6-5.5zm-7.9 35.7c0 .3-.3.6-.6.6s-.6-.3-.6-.6c0-8.7.5-11.9 1.8-14.1-1.2.2-2.7.1-4.5-.9-1.8 1-3.4 1.1-4.5.9 1.3 2.2 1.8 5.4 1.8 13.9 0 .3-.3.6-.6.6s-.6-.3-.6-.6c0-11.5-.9-12.9-3.1-15.1-.2-.2-.3-.6 0-.9.2-.2.6-.3.8 0 .4.4 2.5 2 5.9-.1h.6c3.4 2.1 5.5.5 5.9.1.2-.2.6-.2.9 0 .2.2.2.6 0 .8-2.3 2.3-3.2 3.7-3.2 15.4zm8.2-6.7c-2 2.5-2.9 4.4-3.2 6.8-.1.6-.6 1.1-1.2 1.1-.7 0-1.2-.5-1.2-1.2V38c.3-2.8 1.4-5.2 3.7-8 2.3-2.9 3.5-6 3.5-9.2 0-3.9-1.7-7.6-4.6-10.3C35.8 7.9 32 6.7 28 7.1c-6.4.7-11.5 5.9-12.1 12.4-.3 3.7.8 7.2 3.5 10.6 2.2 2.8 3.3 5.2 3.6 8 .1.7-.4 1.3-1.1 1.4h-.2c-.6 0-1.1-.5-1.2-1.1-.3-2.4-1.2-4.4-3.1-6.8-3-3.8-4.4-8.1-4-12.3.7-7.6 6.7-13.7 14.3-14.5 4.6-.5 9.2 1 12.6 4 3.4 3.1 5.4 7.5 5.4 12.1.1 3.6-1.3 7.2-4 10.6z"/><path fill="#895BD3" d="M37.3 46.5l.3-.3s.1-.1.1-.2c.1-.1.1-.2.2-.3 0-.1.1-.1.1-.2.1-.1.1-.2.1-.4v-.2c0-.2.1-.4.1-.6v-1.6c0-.8-.4-1.6-1-2.2-.6-.5-1.5-.8-2.3-.6-1.2.2-3.2.4-5.4.4s-4.1-.2-5.4-.4c-.8-.1-1.7.1-2.3.6-.6.5-1 1.3-1 2.2v1.6c0 .2 0 .4.1.6v.2c0 .1.1.3.1.4 0 .1.1.1.1.2.1.1.1.2.2.3 0 .1.1.1.1.2l.3.3s0 .1.1.1c-.1.2-.1.5-.1.7h4.4c.3-.2.5-.5.5-.9.1-.7-.4-1.3-1.1-1.4-.7-.1-1.4-.2-1.9-.3-.2 0-.4-.2-.4-.4v-1.6c0-.2.1-.3.2-.3 0 0 .1 0 .1-.1h.3c1.3.2 3.4.5 5.8.5h.9c2-.1 3.7-.3 4.9-.5.2 0 .3 0 .4.1.1.1.2.2.2.3v1.6c0 .2-.2.4-.4.4-.5.1-1.2.2-1.9.3-.7.1-1.1.7-1.1 1.4 0 .4.3.7.5.9h4.3c0-.2 0-.5-.1-.8 0 .1 0 .1 0 0zm3.1-37.8c-3.4-3.1-8-4.5-12.6-4-7.6.8-13.6 7-14.3 14.5-.4 4.2 1 8.5 4 12.3 1.9 2.4 2.8 4.4 3.1 6.8.1.6.6 1.1 1.2 1.1h.2c.7-.1 1.1-.7 1.1-1.4-.4-2.8-1.4-5.2-3.6-8-2.7-3.4-3.9-6.9-3.5-10.6.5-6.4 5.6-11.6 12-12.3 4-.4 7.8.8 10.8 3.4 2.9 2.6 4.6 6.3 4.6 10.3 0 3.2-1.2 6.3-3.5 9.2-2.3 2.9-3.4 5.2-3.7 8v.2c0 .7.5 1.2 1.2 1.2.6 0 1.1-.5 1.2-1.1.3-2.4 1.2-4.3 3.2-6.8 2.7-3.4 4.1-7 4.1-10.7-.1-4.6-2.1-9-5.5-12.1z"/><path fill="#895BD3" d="M36.6 22.1c-.2-.2-.6-.2-.9 0-.4.3-2.5 1.9-5.9-.1h-.6c-3.4 2.1-5.5.5-5.9.1-.2-.2-.6-.2-.8 0-.2.2-.2.6 0 .9 2.2 2.2 3.1 3.6 3.1 15.1 0 .3.3.6.6.6s.6-.3.6-.6c0-8.5-.5-11.7-1.8-13.9 1.2.2 2.7.1 4.5-.9 1.8 1 3.4 1.1 4.5.9-1.3 2.2-1.8 5.4-1.8 14.1 0 .3.3.6.6.6s.6-.3.6-.6c0-11.7.9-13 3.2-15.3.3-.3.3-.7 0-.9z"/></svg>
